svg/emoji_u1f4f6.svg

<svg width="128" height="128" viewBox="0 0 128 128" fill="none" xmlns="http://www.w3.org/2000/svg">
<path d="M116 4H12C7.58 4 4 7.58 4 12V116C4 120.42 7.58 124 12 124H116C120.42 124 124 120.42 124 116V12C124 7.58 120.42 4 116 4Z" fill="#427687" style="fill:#427687;fill:color(display-p3 0.2588 0.4627 0.5294);fill-opacity:1;"/>
<path d="M109.7 4H11.5C7.37002 4.03 4.03002 7.37 4.00002 11.5V109.4C3.99002 113.54 7.34002 116.89 11.48 116.9C11.49 116.9 11.49 116.9 11.5 116.9H109.6C113.74 116.91 117.09 113.56 117.1 109.42C117.1 109.41 117.1 109.41 117.1 109.4V11.5C117.19 7.45 113.97 4.09 109.92 4C109.85 4 109.77 4 109.7 4Z" fill="#8CAFBF" style="fill:#8CAFBF;fill:color(display-p3 0.5490 0.6863 0.7490);fill-opacity:1;"/>
<path opacity="0.75" d="M39.6996 12.8999C39.6996 10.5999 38.0996 9.89988 28.8996 10.1999C21.1996 10.4999 17.3996 11.3999 15.0996 14.1999C12.7996 16.9999 12.1996 22.6999 12.0996 29.4999C12.0996 34.2999 12.0996 38.7999 14.5996 38.7999C17.9996 38.7999 17.9996 30.8999 20.7996 26.4999C26.1996 17.7999 39.6996 15.8999 39.6996 12.8999Z" fill="#9BC2D0" style="fill:#9BC2D0;fill:color(display-p3 0.6078 0.7608 0.8157);fill-opacity:1;"/>
<path d="M34 104H26C24.9 104 24 103.1 24 102V74C24 72.9 24.9 72 26 72H34C35.1 72 36 72.9 36 74V102C36 103.1 35.1 104 34 104Z" fill="#FAFAFA" style="fill:#FAFAFA;fill:color(display-p3 0.9804 0.9804 0.9804);fill-opacity:1;"/>
<path d="M56.7002 104H48.7002C47.6002 104 46.7002 103.1 46.7002 102V58C46.7002 56.9 47.6002 56 48.7002 56H56.7002C57.8002 56 58.7002 56.9 58.7002 58V102C58.7002 103.1 57.8002 104 56.7002 104Z" fill="#FAFAFA" style="fill:#FAFAFA;fill:color(display-p3 0.9804 0.9804 0.9804);fill-opacity:1;"/>
<path d="M79.2998 104H71.2998C70.1998 104 69.2998 103.1 69.2998 102V42C69.2998 40.9 70.1998 40 71.2998 40H79.2998C80.3998 40 81.2998 40.9 81.2998 42V102C81.2998 103.1 80.3998 104 79.2998 104Z" fill="#FAFAFA" style="fill:#FAFAFA;fill:color(display-p3 0.9804 0.9804 0.9804);fill-opacity:1;"/>
<path d="M102 104H94C92.9 104 92 103.1 92 102V26C92 24.9 92.9 24 94 24H102C103.1 24 104 24.9 104 26V102C104 103.1 103.1 104 102 104Z" fill="#FAFAFA" style="fill:#FAFAFA;fill:color(display-p3 0.9804 0.9804 0.9804);fill-opacity:1;"/>
</svg>

<?xml version="1.0" encoding="utf-8"?>
<!-- Generator: Adobe Illustrator 25.2.3, SVG Export Plug-In . SVG Version: 6.00 Build 0)  -->
<svg version="1.1" id="Layer_2" xmlns="http://www.w3.org/2000/svg" xmlns:xlink="http://www.w3.org/1999/xlink" x="0px" y="0px"
	 viewBox="0 0 128 128" style="enable-background:new 0 0 128 128;" xml:space="preserve">
<g>
	<path style="fill:#F77E00;" d="M116,4H12c-4.42,0-8,3.58-8,8v104c0,4.42,3.58,8,8,8h104c4.42,0,8-3.58,8-8V12
		C124,7.58,120.42,4,116,4z"/>
	<path style="fill:#FF9800;" d="M109.7,4H11.5C7.37,4.03,4.03,7.37,4,11.5v97.9c-0.01,4.14,3.34,7.49,7.48,7.5c0.01,0,0.01,0,0.02,0
		h98.1c4.14,0.01,7.49-3.34,7.5-7.48c0-0.01,0-0.01,0-0.02V11.5c0.09-4.05-3.13-7.41-7.18-7.5C109.85,4,109.77,4,109.7,4z"/>
	<path style="opacity:0.75;fill:#FFBD52;enable-background:new    ;" d="M39.7,12.9c0-2.3-1.6-3-10.8-2.7c-7.7,0.3-11.5,1.2-13.8,4
		s-2.9,8.5-3,15.3c0,4.8,0,9.3,2.5,9.3c3.4,0,3.4-7.9,6.2-12.3C26.2,17.8,39.7,15.9,39.7,12.9z"/>
	<path style="fill:#FAFAFA;" d="M34,104h-8c-1.1,0-2-0.9-2-2V74c0-1.1,0.9-2,2-2h8c1.1,0,2,0.9,2,2v28C36,103.1,35.1,104,34,104z"/>
	<path style="fill:#FAFAFA;" d="M56.7,104h-8c-1.1,0-2-0.9-2-2V58c0-1.1,0.9-2,2-2h8c1.1,0,2,0.9,2,2v44
		C58.7,103.1,57.8,104,56.7,104z"/>
	<path style="fill:#FAFAFA;" d="M79.3,104h-8c-1.1,0-2-0.9-2-2V42c0-1.1,0.9-2,2-2h8c1.1,0,2,0.9,2,2v60
		C81.3,103.1,80.4,104,79.3,104z"/>
	<path style="fill:#FAFAFA;" d="M102,104h-8c-1.1,0-2-0.9-2-2V26c0-1.1,0.9-2,2-2h8c1.1,0,2,0.9,2,2v76C104,103.1,103.1,104,102,104
		z"/>
</g>
</svg>
